assets/img/braze_icons/scissors-cut-01.svg

<svg fill="none" height="24" viewBox="0 0 24 24" width="24" xmlns="http://www.w3.org/2000/svg"><g fill="#801ed7"><path clip-rule="evenodd" d="m6 2c-2.20914 0-4 1.79086-4 4s1.79086 4 4 4c.74181 0 1.43645-.20193 2.03197-.55382l2.55383 2.55382-2.55383 2.5538c-.59552-.3519-1.29016-.5538-2.03197-.5538-2.20914 0-4 1.7909-4 4s1.79086 4 4 4 4-1.7909 4-4c0-.7418-.20193-1.4365-.55382-2.032l2.55382-2.5538 7.2929 7.2929c.3905.3905 1.0237.3905 1.4142 0s.3905-1.0237 0-1.4142l-7.2929-7.2929 7.2929-7.29289c.3905-.39053.3905-1.02369 0-1.41422-.3905-.39052-1.0237-.39052-1.4142 0l-7.2929 7.29291-2.55382-2.55383c.35189-.59552.55382-1.29016.55382-2.03197 0-2.20914-1.79086-4-4-4zm-2 4c0-1.10457.89543-2 2-2s2 .89543 2 2-.89543 2-2 2-2-.89543-2-2zm2 10c-1.10457 0-2 .8954-2 2s.89543 2 2 2 2-.8954 2-2-.89543-2-2-2z" fill-rule="evenodd"/><path d="m16.5 12c0-.5523.4477-1 1-1h.01c.5523 0 1 .4477 1 1s-.4477 1-1 1h-.01c-.5523 0-1-.4477-1-1z"/><path d="m22 11c-.5523 0-1 .4477-1 1s.4477 1 1 1h.01c.5523 0 1-.4477 1-1s-.4477-1-1-1z"/></g></svg>

<svg width="24" height="24" viewBox="0 0 24 24" fill="none" xmlns="http://www.w3.org/2000/svg">
<path fill-rule="evenodd" clip-rule="evenodd" d="M6 2C3.79086 2 2 3.79086 2 6C2 8.20914 3.79086 10 6 10C6.74181 10 7.43645 9.79807 8.03197 9.44618L10.5858 12L8.03197 14.5538C7.43645 14.2019 6.74181 14 6 14C3.79086 14 2 15.7909 2 18C2 20.2091 3.79086 22 6 22C8.20914 22 10 20.2091 10 18C10 17.2582 9.79807 16.5635 9.44618 15.968L12 13.4142L19.2929 20.7071C19.6834 21.0976 20.3166 21.0976 20.7071 20.7071C21.0976 20.3166 21.0976 19.6834 20.7071 19.2929L13.4142 12L20.7071 4.70711C21.0976 4.31658 21.0976 3.68342 20.7071 3.29289C20.3166 2.90237 19.6834 2.90237 19.2929 3.29289L12 10.5858L9.44618 8.03197C9.79807 7.43645 10 6.74181 10 6C10 3.79086 8.20914 2 6 2ZM4 6C4 4.89543 4.89543 4 6 4C7.10457 4 8 4.89543 8 6C8 7.10457 7.10457 8 6 8C4.89543 8 4 7.10457 4 6ZM6 16C4.89543 16 4 16.8954 4 18C4 19.1046 4.89543 20 6 20C7.10457 20 8 19.1046 8 18C8 16.8954 7.10457 16 6 16Z" fill="#801ED7"/>
<path d="M16.5 12C16.5 11.4477 16.9477 11 17.5 11H17.51C18.0623 11 18.51 11.4477 18.51 12C18.51 12.5523 18.0623 13 17.51 13H17.5C16.9477 13 16.5 12.5523 16.5 12Z" fill="#801ED7"/>
<path d="M22 11C21.4477 11 21 11.4477 21 12C21 12.5523 21.4477 13 22 13H22.01C22.5623 13 23.01 12.5523 23.01 12C23.01 11.4477 22.5623 11 22.01 11H22Z" fill="#801ED7"/>
</svg>
